X:220
T:Reel 220
M:4/4
K:Amin
L:1/8
AF|G>E (3EEE GEGE|DB,GB, GB,G,B,| (3CDC EG GEFD|EDGB, A,2:|ED|EGcB AGEA|GEDF EAAB|GFGA ABAG|AcBA GEEG|GAGE ABcA|GEDC B,D (3B,CD |EAAG EABA|GEDB, A,2|
